svg/filerun.svg

<?xml version="1.0" encoding="UTF-8"?>
<svg width="256px" height="256px" viewBox="0 0 256 256" version="1.1" xmlns="http://www.w3.org/2000/svg" xmlns:xlink="http://www.w3.org/1999/xlink">
    <title>FileRun icon 256x256 Diap</title>
    <g id="FileRun-icon-256x256-Diap" stroke="none" stroke-width="1" fill="none" fill-rule="evenodd">
        <path d="M151.385542,109.313253 L143.36603,131.353356 L135.858205,131.353356 C127.849928,131.353356 118.995985,137.846676 116.081099,145.857079 L116.081099,145.857079 L102.641368,182.79218 L117.247462,182.79218 L77.2489689,212.124498 L58.5983936,182.79218 L73.2565754,182.79218 L89.4232671,138.363608 C95.2612107,122.319304 112.996671,109.313253 129.036717,109.313253 L129.036717,109.313253 L151.385542,109.313253 Z M175.429665,43 L201.506024,72.3872215 L154.005412,101.773421 L159.360708,87.0808323 L122.491873,87.0808323 C106.281663,87.0808323 88.358005,100.201551 82.4581725,116.387314 L82.4581725,116.387314 L77.0731935,131.160643 L55,131.160643 L63.0636503,109.039998 C73.4006399,80.6819523 104.803634,57.6936108 133.203487,57.6936108 L133.203487,57.6936108 L170.073346,57.6936108 L175.429665,43 Z" id="FileRun-icon" fill="#590099"></path>
    </g>
</svg>

<?xml version="1.0" encoding="UTF-8"?>
<svg width="256" height="256" viewBox="0 0 256 256" version="1.1" xmlns="http://www.w3.org/2000/svg">
    <defs>
    <style type="text/css">
        rect {
            fill: #0b57d0;
        }
        path {
            fill: #FFFFFF;
        }
        @media (prefers-color-scheme: dark) {
            rect {
                fill: #fff;
            }
            path {
                fill: #0b57d0;
            }
        }
    </style>
    </defs>
    <rect fill="#0b57d0" x="0" y="0" width="256" height="256" rx="50"></rect>
    <path d="m151.386 109.313-8.02 22.04h-7.508c-8.008 0-16.862 6.494-19.777 14.504l-13.44 36.935h14.606L77.25 212.124l-18.65-29.332h14.658l16.166-44.428c5.838-16.045 23.574-29.05 39.614-29.05h22.349zM175.43 43l26.076 29.387-47.5 29.386 5.355-14.692h-36.87c-16.21 0-34.133 13.12-40.033 29.306l-5.385 14.774H55l8.064-22.121c10.337-28.358 41.74-51.346 70.14-51.346h36.87L175.43 43z"  fill="#FFFFFF"></path>
</svg>
